X:19
T:RVW2/2/19 With Her Cheeks Red As Roses
C:Mr. Pottipher (?) [Pottiphar], Ingrave (?) Essex, 24 March 1904
L:1/4
Q:1/4=100
M:3/4
I:linebreak $
K:G
"^(Editorial suggestion) " d | e d B/A/ | d/B/ G d | e d B | A2 d/d/ |$ e d B/A/ | d/B/ G A/B/ | 
c E F | G2 |] 



